src/assets/bold/lm-text-t-plus-bold.svg

<svg width="24" height="24" viewBox="0 0 24 24" fill="none" xmlns="http://www.w3.org/2000/svg" fill="currentColor">
<path d="M22 5.25V8.25C22 8.44891 21.921 8.63968 21.7803 8.78033C21.6397 8.92098 21.4489 9 21.25 9C21.0511 9 20.8603 8.92098 20.7197 8.78033C20.579 8.63968 20.5 8.44891 20.5 8.25V6H15.25V18H17.5C17.6989 18 17.8897 18.079 18.0303 18.2197C18.171 18.3603 18.25 18.5511 18.25 18.75C18.25 18.9489 18.171 19.1397 18.0303 19.2803C17.8897 19.421 17.6989 19.5 17.5 19.5H11.5C11.3011 19.5 11.1103 19.421 10.9697 19.2803C10.829 19.1397 10.75 18.9489 10.75 18.75C10.75 18.5511 10.829 18.3603 10.9697 18.2197C11.1103 18.079 11.3011 18 11.5 18H13.75V6H8.5V8.25C8.5 8.44891 8.42098 8.63968 8.28033 8.78033C8.13968 8.92098 7.94891 9 7.75 9C7.55109 9 7.36032 8.92098 7.21967 8.78033C7.07902 8.63968 7 8.44891 7 8.25V5.25C7 5.05109 7.07902 4.86032 7.21967 4.71967C7.36032 4.57902 7.55109 4.5 7.75 4.5H21.25C21.4489 4.5 21.6397 4.57902 21.7803 4.71967C21.921 4.86032 22 5.05109 22 5.25Z" fill="black"/>
<path d="M8 13.5C8 13.6989 7.92098 13.8897 7.78033 14.0303C7.63968 14.171 7.44891 14.25 7.25 14.25H5.75V15.75C5.75 15.9489 5.67098 16.1397 5.53033 16.2803C5.38968 16.421 5.19891 16.5 5 16.5C4.80109 16.5 4.61032 16.421 4.46967 16.2803C4.32902 16.1397 4.25 15.9489 4.25 15.75V14.25H2.75C2.55109 14.25 2.36032 14.171 2.21967 14.0303C2.07902 13.8897 2 13.6989 2 13.5C2 13.3011 2.07902 13.1103 2.21967 12.9697C2.36032 12.829 2.55109 12.75 2.75 12.75H4.25V11.25C4.25 11.0511 4.32902 10.8603 4.46967 10.7197C4.61032 10.579 4.80109 10.5 5 10.5C5.19891 10.5 5.38968 10.579 5.53033 10.7197C5.67098 10.8603 5.75 11.0511 5.75 11.25V12.75H7.25C7.44891 12.75 7.63968 12.829 7.78033 12.9697C7.92098 13.1103 8 13.3011 8 13.5Z" fill="black"/>
</svg>

<svg xmlns="http://www.w3.org/2000/svg" width="24" height="24" fill="currentColor" viewBox="0 0 24 24">
  <path d="M22 5.25v3a.75.75 0 1 1-1.5 0V6h-5.25v12h2.25a.75.75 0 1 1 0 1.5h-6a.75.75 0 1 1 0-1.5h2.25V6H8.5v2.25a.75.75 0 0 1-1.5 0v-3a.75.75 0 0 1 .75-.75h13.5a.75.75 0 0 1 .75.75ZM8 13.5a.75.75 0 0 1-.75.75h-1.5v1.5a.75.75 0 1 1-1.5 0v-1.5h-1.5a.75.75 0 1 1 0-1.5h1.5v-1.5a.75.75 0 1 1 1.5 0v1.5h1.5a.75.75 0 0 1 .75.75Z"/>
</svg>
